X:1
T:Hanby, 84.84.88.84
T:Hanby, 84.84.88.84
T:William H. Lanthurn, 1876
T:Public Domain Courtesy of the Cyber Hymnal™
C:William H. Lanthurn, 1876
Z:Public Domain
Z:Courtesy of the Cyber Hymnal™
%%score ( 1 2 ) ( 3 4 )
L:1/8
Q:1/4=110
M:4/4
K:Eb
V:1 treble 
V:2 treble 
V:3 bass 
V:4 bass 
V:1
 E3 [EF] [EG]2 [DF]2 | E2 [DF]2 [EG] [EB]3 | [Ec]4 [EB]2 [EG]2 | [DF]6 z2 | [EG]3 [DF] E2 [DF]2 | %5
 [EG]2 [EA]2 [Ec] [EB]3 | [FB]4 [E=A]2 [Ec]2 | [DB]6 z2 | [FA]3 [EG] ([DF][EG]) ([FA][Ac]) | %9
 [GB]3 [FA] [EG] [GB]3 | [Ac]3 [Bd] [ce]2 [Ac]2 | [GB]3 [EG] [EG] [DF]3 | [EG]3 [DF] E2 [DF]2 | %13
 [EG]2 [EA]2 [Ec] [EB]3 | G4 [Ec]3 [DB] | E4 z2 |] %16
V:2
 E3 x5 | E2 x6 | x8 | x8 | x4 E2 x2 | x8 | x8 | x8 | x8 | x8 | x8 | x8 | x4 E2 x2 | x8 | %14
 (B,2 E2) x4 | E4 x2 |] %16
V:3
 [E,G,]3 [E,A,] [E,B,]2 [E,A,]2 | [E,G,]2 [E,A,]2 [E,B,] [E,G,]3 | A,4 [G,B,]2 [E,B,]2 | %3
 [B,,B,]6 z2 | [E,B,]3 [B,,A,] [C,G,]2 [B,,B,]2 | [E,B,]2 [E,C]2 [E,A,] [E,G,]3 | %6
 [D,B,]4 [C,C]2 [F,=A,]2 | [B,,B,]6 z2 | [B,,B,]3 [B,,B,] [B,,B,]2 [B,,C]2 | %9
 [E,E]3 [E,E] [E,E] [E,E]3 | [A,E]3 [A,E] [A,E]2 [A,E]2 | [E,E]3 [E,B,] [B,,B,] [B,,B,]3 | %12
 [E,B,]3 [B,,A,] [C,G,]2 [B,,B,]2 | [E,B,]2 [E,C]2 [E,A,] [E,G,]3 | E,2 [C,G,]2 [A,,A,]3 [B,,A,] | %15
 [E,G,]4 z2 |] %16
V:4
 x8 | x8 | A,4 x4 | x8 | x8 | x8 | x8 | x8 | x8 | x8 | x8 | x8 | x8 | x8 | E,2 x6 | x6 |] %16

